symbolic/24x24/actions/address-book-new.svg

<svg xmlns="http://www.w3.org/2000/svg" width="24" height="24"><defs><style id="current-color-scheme" type="text/css"></style></defs><path style="fill:currentColor;color:#323a41" d="M3 1c-1.11 0-2 .89-2 2v10c0 1.11.89 2 2 2h10c1.11 0 2-.89 2-2V3c0-1.11-.89-2-2-2zm5 3c2.21 0 4 1.79 4 4v.5a1.498 1.498 0 0 1-2.65.96C9 9.79 8.52 10 8 10c-1.1 0-2-.9-2-2s.9-2 2-2 2 .9 2 2v.5c0 .28.22.5.5.5s.5-.22.5-.5V8c0-1.66-1.34-3-3-3S5 6.34 5 8s1.34 3 3 3h2.5s.5 0 .5.5c-.03.5-.5.5-.5.5H8c-2.21 0-4-1.79-4-4s1.79-4 4-4zm0 3c-.55 0-1 .45-1 1s.45 1 1 1 1-.45 1-1-.45-1-1-1z" transform="translate(4 4)"/></svg>

<svg xmlns="http://www.w3.org/2000/svg" width="24" height="24" version="1.1">
 <defs>
  <style id="current-color-scheme" type="text/css">
   .ColorScheme-Text { color:#323a41; } .ColorScheme-Highlight { color:#4285f4; } .ColorScheme-NeutralText { color:#ff9800; } .ColorScheme-PositiveText { color:#4caf50; } .ColorScheme-NegativeText { color:#f44336; }
  </style>
 </defs>
 <g transform="matrix(1,0,0,1,4,4)">
  <path style="fill:currentColor" class="ColorScheme-Text" d="M 3,1 C 1.89,1 1,1.89 1,3 V 13 C 1,14.11 1.89,15 3,15 H 13 C 14.11,15 15,14.11 15,13 V 3 C 15,1.89 14.11,1 13,1 Z M 8,4 C 10.21,4 12,5.79 12,8 V 8.5 C 12,9.33 11.33,10 10.5,10 10.06,10 9.64,9.8 9.35,9.46 9,9.79 8.52,10 8,10 6.9,10 6,9.1 6,8 6,6.9 6.9,6 8,6 9.1,6 10,6.9 10,8 V 8.5 C 10,8.78 10.22,9 10.5,9 10.78,9 11,8.78 11,8.5 V 8 C 11,6.34 9.66,5 8,5 6.34,5 5,6.34 5,8 5,9.66 6.34,11 8,11 H 10.5 C 10.5,11 11,11 11,11.5 10.97,12 10.5,12 10.5,12 H 8 C 5.79,12 4,10.21 4,8 4,5.79 5.79,4 8,4 Z M 8,7 C 7.45,7 7,7.45 7,8 7,8.55 7.45,9 8,9 8.55,9 9,8.55 9,8 9,7.45 8.55,7 8,7 Z"/>
 </g>
</svg>
